svgs/duotone/barcode-read.svg

<svg xmlns="http://www.w3.org/2000/svg" viewBox="0 0 576 512"><!--! Font Awesome Pro 6.4.2 by @fontawesome - https://fontawesome.com License - https://fontawesome.com/license (Commercial License) Copyright 2023 Fonticons, Inc. --><defs><style>.fa-secondary{opacity:.4}</style></defs><path class="fa-primary" d="M152 128c-13.3 0-24 10.7-24 24V360c0 13.3 10.7 24 24 24h16c13.3 0 24-10.7 24-24V152c0-13.3-10.7-24-24-24H152zm160 0c-13.3 0-24 10.7-24 24V360c0 13.3 10.7 24 24 24h16c13.3 0 24-10.7 24-24V152c0-13.3-10.7-24-24-24H312zm72 24V360c0 13.3 10.7 24 24 24h16c13.3 0 24-10.7 24-24V152c0-13.3-10.7-24-24-24H408c-13.3 0-24 10.7-24 24zM240 128c-8.8 0-16 7.2-16 16V368c0 8.8 7.2 16 16 16s16-7.2 16-16V144c0-8.8-7.2-16-16-16z"/><path class="fa-secondary" d="M48 56c0-4.4 3.6-8 8-8h80c13.3 0 24-10.7 24-24s-10.7-24-24-24H56C25.1 0 0 25.1 0 56v80c0 13.3 10.7 24 24 24s24-10.7 24-24V56zm480 0v80c0 13.3 10.7 24 24 24s24-10.7 24-24V56c0-30.9-25.1-56-56-56H440c-13.3 0-24 10.7-24 24s10.7 24 24 24h80c4.4 0 8 3.6 8 8zM56 464c-4.4 0-8-3.6-8-8V376c0-13.3-10.7-24-24-24s-24 10.7-24 24v80c0 30.9 25.1 56 56 56h80c13.3 0 24-10.7 24-24s-10.7-24-24-24H56zm472-8c0 4.4-3.6 8-8 8H440c-13.3 0-24 10.7-24 24s10.7 24 24 24h80c30.9 0 56-25.1 56-56V376c0-13.3-10.7-24-24-24s-24 10.7-24 24v80z"/></svg>

<svg xmlns="http://www.w3.org/2000/svg" viewBox="0 0 576 512"><!--! Font Awesome Pro 6.0.0-alpha3 by @fontawesome - https://fontawesome.com License - https://fontawesome.com/license (Commercial License) --><defs><style>.fa-secondary{opacity:.4}</style></defs><path class="fa-primary" d="M240 128C231.2 128 224 135.2 224 144v224C224 376.8 231.2 384 240 384S256 376.8 256 368v-224C256 135.2 248.8 128 240 128zM168 128h-16C138.8 128 128 138.8 128 152v208C128 373.2 138.8 384 152 384h16C181.2 384 192 373.2 192 360v-208C192 138.8 181.2 128 168 128zM448 360v-208C448 138.8 437.2 128 424 128h-16C394.8 128 384 138.8 384 152v208c0 13.2 10.8 24 24 24h16C437.2 384 448 373.2 448 360zM328 128h-16c-13.2 0-23.99 10.8-23.99 23.1V360c0 13.2 10.79 24 23.99 24h16c13.2 0 24-10.8 24-24v-208C352 138.8 341.2 128 328 128z"/><path class="fa-secondary" d="M136 464H48v-88C48 362.8 37.2 352 24 352S0 362.8 0 376V480c0 17.6 14.4 32 32 32h104C149.2 512 160 501.2 160 488C160 474.8 149.2 464 136 464zM136 0H32C14.4 0 0 14.4 0 32v104C0 149.2 10.8 160 24 160S48 149.2 48 136V48h88C149.2 48 160 37.2 160 24C160 10.8 149.2 0 136 0zM544 0h-104C426.8 0 416 10.8 416 24c0 13.2 10.8 24 24 24h88v88C528 149.2 538.8 160 552 160S576 149.2 576 136V32C576 14.4 561.6 0 544 0zM552 352c-13.2 0-24 10.8-24 24v88h-88c-13.2 0-24 10.8-24 24c0 13.2 10.8 24 24 24H544c17.6 0 32-14.4 32-32v-104C576 362.8 565.2 352 552 352z"/></svg>
